src/assets/skills/typescript-icon.svg

<svg width="122" height="122" viewBox="0 0 122 122" fill="none" xmlns="http://www.w3.org/2000/svg">
<g clip-path="url(#clip0_57_2)">
<path fill-rule="evenodd" clip-rule="evenodd" d="M0 61V0H122V122H0V61Z" fill="#007ACC"/>
<path fill-rule="evenodd" clip-rule="evenodd" d="M26.7471 61.2085V66.1827H42.6027V111.327H53.8615V66.1827H69.7171V61.2979C69.7171 58.5577 69.7171 56.3238 69.598 56.2642C69.598 56.1748 59.9277 56.1451 48.1825 56.1451L26.8364 56.2344V61.2383L26.7471 61.2085ZM98.0229 56.1153C101.131 56.85 103.513 58.2499 105.648 60.4738C106.78 61.695 108.458 63.8296 108.577 64.3757C108.577 64.5544 103.305 68.1286 100.098 70.1143C99.9788 70.2037 99.4923 69.6874 98.9959 68.8931C97.4074 66.6394 95.7891 65.6565 93.2573 65.4777C89.5938 65.2295 87.1613 67.1556 87.1613 70.3526C87.1613 71.3256 87.34 71.8816 87.7074 72.6659C88.5314 74.3438 90.0604 75.3466 94.7863 77.4216C103.513 81.1745 107.296 83.6467 109.58 87.1812C112.171 91.1426 112.747 97.3677 111.009 102.034C109.053 107.127 104.298 110.572 97.4967 111.704C95.3621 112.072 90.4774 112.012 88.1938 111.615C83.319 110.702 78.6427 108.259 75.7834 105.122C74.6515 103.901 72.4871 100.634 72.6162 100.426L73.7778 99.691L78.3548 97.0401L81.8 95.0246L82.5942 96.0969C83.597 97.6854 85.8607 99.82 87.1712 100.555C91.1327 102.6 96.4443 102.322 99.0654 99.9491C100.197 98.9165 100.684 97.8145 100.684 96.2855C100.684 94.8856 100.465 94.2403 99.7703 93.1779C98.7974 91.8376 96.8415 90.7356 91.3511 88.3031C85.0366 85.6224 82.356 83.9148 79.854 81.2837C78.4243 79.6952 77.1138 77.223 76.4982 75.1877C76.0415 73.4205 75.8926 69.0917 76.3195 67.3443C77.63 61.2483 82.2368 56.979 88.8293 55.7579C90.9639 55.3309 95.9976 55.5096 98.1024 56.0656L98.0229 56.1153Z" fill="white"/>
</g>
<defs>
<clipPath id="clip0_57_2">
<rect width="122" height="122" rx="8" fill="white"/>
</clipPath>
</defs>
</svg>

<svg xmlns="http://www.w3.org/2000/svg" width="122" height="122" fill="none"><g fill-rule="evenodd" clip-path="url(#a)" clip-rule="evenodd"><path fill="#007ACC" d="M0 61V0h122v122H0V61Z"/><path fill="#fff" d="M26.747 61.209v4.974h15.856v45.144H53.86V66.183h15.856v-4.885c0-2.74 0-4.974-.119-5.034 0-.09-9.67-.119-21.416-.119l-21.346.09v5.003l-.089-.03Zm71.276-5.094c3.108.735 5.49 2.135 7.625 4.359 1.132 1.221 2.81 3.356 2.929 3.902 0 .178-5.272 3.753-8.479 5.738-.12.09-.606-.427-1.102-1.22-1.589-2.255-3.207-3.238-5.739-3.416-3.663-.248-6.096 1.678-6.096 4.875 0 .973.179 1.529.546 2.313.824 1.678 2.353 2.68 7.08 4.756 8.726 3.752 12.509 6.225 14.793 9.76 2.591 3.96 3.167 10.186 1.429 14.852-1.956 5.093-6.711 8.538-13.512 9.67-2.135.368-7.02.308-9.303-.089-4.875-.913-9.551-3.356-12.41-6.493-1.133-1.221-3.297-4.488-3.168-4.696l1.162-.735 4.577-2.65 3.445-2.016.794 1.072c1.003 1.588 3.267 3.723 4.577 4.458 3.962 2.045 9.273 1.767 11.894-.606 1.132-1.032 1.619-2.135 1.619-3.663 0-1.4-.219-2.046-.914-3.108-.973-1.34-2.928-2.442-8.419-4.875-6.314-2.68-8.995-4.388-11.497-7.02-1.43-1.588-2.74-4.06-3.356-6.095-.457-1.767-.605-6.096-.178-7.844 1.31-6.096 5.917-10.365 12.51-11.586 2.134-.427 7.168-.248 9.272.308l-.08.05Z"/></g><defs><clipPath id="a"><rect width="122" height="122" fill="#fff" rx="8"/></clipPath></defs></svg>
